symbolic/32x32/apps/repl.it.svg

<svg xmlns="http://www.w3.org/2000/svg" width="32" height="32" version="1.1">
 <circle style="fill:#e4e4e4" cx="16" cy="16" r="13.4"/>
 <path style="fill:#56676e" d="M 29.935082,14.693497 C 29.97347,15.116584 30,15.543408 30,15.976775 v 0 c 0,-0.433367 -0.02653,-0.85988 -0.06492,-1.283278 z"/>
 <path style="opacity:0.2" d="m 15.999998,3.0000064 a 14.051807,14.027259 0 0 0 -2.538867,0.240625 c 16.217754,1.987382 12.00284,20.9308946 2.007031,20.7894506 0,0 14.554171,1.896075 13.643163,-11.917772 C 27.130452,6.7950741 22.01596,3.0000064 15.999998,3.0000064 Z m -3.741991,0.9666015 c -0.447282,-0.00842 -0.912365,-0.00242 -1.395899,0.017773 C 5.673513,6.0303349 2,11.069328 2,16.975395 a 14.078648,14.054052 0 0 0 0.1435547,1.900391 C 5.3999637,2.5087807 23.952343,7.8093635 22.897459,17.803911 c 0,0 3.226275,-13.5762233 -10.639452,-13.8373031 z m 1.61328,5.8802727 C 9.5941836,9.7121243 2.774691,11.195399 2.9283203,22.068168 a 14.039948,14.01542 0 0 0 3.3851555,5.053124 c 0.062419,0.05888 0.1269961,0.114317 0.1900395,0.172266 a 14.049623,14.025078 0 0 0 1.3289057,1.080078 c 0.072094,0.05141 0.1395086,0.108434 0.2119145,0.158593 a 13.942574,13.918217 0 0 0 1.5326169,0.907813 c 0.1538635,0.07913 0.3115307,0.151749 0.4675786,0.225586 a 13.854251,13.830047 0 0 0 1.399999,0.567383 c 0.117036,0.03988 0.228669,0.09007 0.347265,0.127149 a 13.878282,13.854037 0 0 0 1.743165,0.411522 c 0.178206,0.03116 0.35828,0.05711 0.538671,0.08203 a 14.044317,14.019782 0 0 0 1.844336,0.142188 c 0.02372,0 0.046,0.0041 0.06973,0.0041 0.465647,0 0.926016,-0.02517 1.379492,-0.06973 C 1.0651663,27.049317 7.2618553,8.8530627 17.234568,10.304888 c 0,0 -1.419142,-0.3967546 -3.363281,-0.4580074 z M 9.1654287,15.619146 c 0,0 -3.8937824,14.321081 11.7113273,14.4457 4.896161,-1.819455 8.503987,-6.280017 9.050779,-11.658005 0.03777,-0.371992 0.04899,-0.75194 0.05742,-1.132032 0.0015,-0.100007 0.01504,-0.197415 0.01504,-0.298046 0,-0.433056 -0.02587,-0.860703 -0.06426,-1.28379 -4.122784,16.201572 -22.3619955,9.855606 -20.7703063,-0.07383 z"/>
 <path style="fill:#4b6a77" d="m 15.999998,1.9999874 a 14.051807,14.027259 0 0 0 -2.538867,0.240625 c 16.217754,1.987382 12.00284,20.9308946 2.007031,20.7894506 0,0 14.554171,1.896075 13.643163,-11.917772 C 27.130452,5.7950551 22.01596,1.9999874 15.999998,1.9999874 Z m -3.741991,0.9666015 c -0.447282,-0.00842 -0.912365,-0.00242 -1.395899,0.017773 C 5.673513,5.0303159 2,10.069309 2,15.975376 a 14.078648,14.054052 0 0 0 0.1435547,1.900391 C 5.3999637,1.5087617 23.952343,6.8093445 22.897459,16.803892 c 0,0 3.226275,-13.5762233 -10.639452,-13.8373031 z m 1.61328,5.8802727 C 9.5941836,8.7121053 2.774691,10.19538 2.9283203,21.068149 a 14.039948,14.01542 0 0 0 3.3851555,5.053124 c 0.062419,0.05888 0.1269961,0.114317 0.1900395,0.172266 a 14.049623,14.025078 0 0 0 1.3289057,1.080078 c 0.072094,0.05141 0.1395086,0.108434 0.2119145,0.158593 a 13.942574,13.918217 0 0 0 1.5326169,0.907813 c 0.1538635,0.07913 0.3115307,0.151749 0.4675786,0.225586 a 13.854251,13.830047 0 0 0 1.399999,0.567383 c 0.117036,0.03988 0.228669,0.09007 0.347265,0.127149 a 13.878282,13.854037 0 0 0 1.743165,0.411522 c 0.178206,0.03116 0.35828,0.05711 0.538671,0.08203 a 14.044317,14.019782 0 0 0 1.844336,0.142188 c 0.02372,0 0.046,0.0041 0.06973,0.0041 0.465647,0 0.926016,-0.02517 1.379492,-0.06973 C 1.0651663,26.049298 7.2618553,7.8530437 17.234568,9.3048694 c 0,0 -1.419142,-0.396755 -3.363281,-0.4580078 z M 9.1654287,14.619127 c 0,0 -3.8937824,14.321081 11.7113273,14.4457 4.896161,-1.819455 8.503987,-6.280017 9.050779,-11.658005 0.03777,-0.371992 0.04899,-0.75194 0.05742,-1.132032 0.0015,-0.100007 0.01504,-0.197415 0.01504,-0.298046 0,-0.433056 -0.02587,-0.860703 -0.06426,-1.28379 C 25.812951,30.894526 7.5737395,24.54856 9.1654287,14.619127 Z"/>
 <path style="opacity:0.1" d="m 20,17.000019 a 4,4 0 1 1 -3.998726,-4 3.9996816,3.9996816 0 0 1 3.998726,4 z"/>
 <path style="fill:#4b4c4d" d="M 20,16 A 4,4 0 1 1 16.001274,12 3.9996816,3.9996816 0 0 1 20,16 Z"/>
 <path style="fill:#ffffff;opacity:0.1" d="M 16 2 A 14.051807 14.027259 0 0 0 13.460938 2.2402344 C 14.760981 2.3995464 15.915943 2.6784454 16.960938 3.0371094 C 22.555669 3.4169965 27.236945 7.081895 29.111328 12.113281 C 29.127456 12.357836 29.128165 12.585507 29.134766 12.820312 C 29.151343 12.276384 29.151041 11.713505 29.111328 11.111328 C 27.130455 5.7940922 22.015962 2 16 2 z M 12.257812 2.9667969 C 11.810531 2.9583769 11.344862 2.964182 10.861328 2.984375 C 5.6727331 5.030329 2 10.068542 2 15.974609 A 14.078648 14.054052 0 0 0 2.0234375 16.380859 C 2.2614502 10.733921 5.8484627 5.9610357 10.861328 3.984375 C 11.344862 3.964182 11.810531 3.9583769 12.257812 3.9667969 C 21.383655 4.1386287 23.096094 10.064753 23.207031 14.105469 C 23.288237 11.736205 22.903935 8.3083636 20.472656 5.8730469 C 18.776486 4.5656497 16.472114 3.6092348 13.460938 3.2402344 A 14.051807 14.027259 0 0 1 14.289062 3.1210938 C 13.653411 3.038155 12.98441 2.9804781 12.257812 2.9667969 z M 13.041016 8.8417969 C 8.7681418 8.9335358 2.7837069 10.875138 2.9277344 21.068359 A 14.039948 14.01542 0 0 0 2.953125 21.123047 C 3.1944897 11.702462 8.9965201 9.9039031 13.136719 9.8417969 C 14.382131 9.3114227 15.765199 9.0908051 17.234375 9.3046875 C 17.234375 9.3046875 15.815233 8.908909 13.871094 8.8476562 C 13.603775 8.839234 13.325874 8.8356809 13.041016 8.8417969 z M 24.296875 13.333984 C 24.063126 18.337098 20.499985 23.100491 15.46875 23.029297 C 15.46875 23.029297 17.203187 23.242577 19.425781 22.974609 C 22.550521 21.152171 24.466101 17.227586 24.296875 13.333984 z M 9.1660156 14.619141 C 9.1660156 14.619141 8.6890486 16.422492 8.75 18.744141 C 8.8006965 17.384894 8.9813753 16.443905 9.0839844 15.992188 C 9.0745517 15.542572 9.0910784 15.086621 9.1660156 14.619141 z M 29.935547 14.693359 C 27.642211 23.705629 20.983124 25.73573 15.796875 24.058594 C 15.679263 24.04718 15.46875 24.029297 15.46875 24.029297 C 15.537072 24.030264 15.602145 24.020336 15.669922 24.019531 C 12.15504 22.836614 9.3481302 19.945631 9.0898438 16.375 C 8.5095487 25.857956 25.918633 31.478887 29.935547 15.693359 C 29.958803 15.949659 29.96351 16.210868 29.974609 16.470703 C 29.976354 16.405106 29.982919 16.341037 29.984375 16.275391 C 29.985875 16.175384 30 16.077193 30 15.976562 C 30 15.543506 29.973937 15.116446 29.935547 14.693359 z M 22.910156 16.496094 C 22.903378 16.599371 22.907495 16.700368 22.896484 16.804688 C 22.896484 16.804688 22.918669 16.689262 22.923828 16.666016 C 22.92137 16.608848 22.9139 16.552878 22.910156 16.496094 z M 7.3398438 19.740234 C 7.1508151 23.577047 9.0660115 27.613079 14.175781 29.863281 A 14.044317 14.019782 0 0 0 15.917969 29.996094 C 15.941689 29.996094 15.964551 30 15.988281 30 C 16.453928 30 16.913712 29.974248 17.367188 29.929688 C 10.388076 28.2682 7.5408613 23.984229 7.3398438 19.740234 z"/>
</svg>

<svg xmlns="http://www.w3.org/2000/svg" width="32" height="32"><circle style="fill:#e4e4e4" cx="16" cy="16" r="13.4"/><path style="fill:#56676e" d="M29.935 14.693a14.175 14.175 0 0 0 0 0z"/><path style="opacity:.2" d="M16 3a14.052 14.027 0 0 0-2.539.24c16.218 1.988 12.003 20.932 2.007 20.79 0 0 14.554 1.896 13.643-11.918C27.131 6.795 22.016 3 16 3zm-3.742.967a23.074 23.074 0 0 0-1.396.017C5.674 6.03 2 11.07 2 16.975a14.079 14.054 0 0 0 .144 1.9C5.4 2.51 23.952 7.81 22.897 17.805c0 0 3.227-13.576-10.639-13.837zm1.613 5.88C9.594 9.712 2.775 11.195 2.928 22.068a14.04 14.015 0 0 0 3.385 5.053c.063.06.127.115.19.173a14.05 14.025 0 0 0 1.33 1.08c.072.051.139.108.211.158a13.943 13.918 0 0 0 1.533.908c.154.08.311.152.468.226a13.854 13.83 0 0 0 1.4.567c.117.04.228.09.347.127a13.878 13.854 0 0 0 1.743.412c.178.03.358.057.539.082a14.044 14.02 0 0 0 1.844.142c.024 0 .046.004.07.004.465 0 .926-.025 1.38-.07-16.303-3.88-10.106-22.077-.133-20.625 0 0-1.42-.397-3.364-.458zm-4.706 5.772S5.272 29.94 20.877 30.065c4.896-1.82 8.504-6.28 9.05-11.658.038-.372.05-.752.058-1.132.001-.1.015-.198.015-.298 0-.433-.026-.86-.064-1.284-4.123 16.202-22.362 9.856-20.77-.074z"/><path style="fill:#4b6a77" d="M16 2a14.052 14.027 0 0 0-2.539.24c16.218 1.988 12.003 20.932 2.007 20.79 0 0 14.554 1.896 13.643-11.918C27.131 5.795 22.016 2 16 2zm-3.742.967a23.074 23.074 0 0 0-1.396.017C5.674 5.03 2 10.07 2 15.975a14.079 14.054 0 0 0 .144 1.9C5.4 1.51 23.952 6.81 22.897 16.805c0 0 3.227-13.576-10.639-13.837zm1.613 5.88C9.594 8.712 2.775 10.195 2.928 21.068a14.04 14.015 0 0 0 3.385 5.053c.063.06.127.115.19.173a14.05 14.025 0 0 0 1.33 1.08c.072.051.139.108.211.158a13.943 13.918 0 0 0 1.533.908c.154.08.311.152.468.226a13.854 13.83 0 0 0 1.4.567c.117.04.228.09.347.127a13.878 13.854 0 0 0 1.743.412c.178.03.358.057.539.082a14.044 14.02 0 0 0 1.844.142c.024 0 .046.004.07.004.465 0 .926-.025 1.38-.07C1.064 26.05 7.261 7.853 17.234 9.305c0 0-1.42-.397-3.364-.458zm-4.706 5.772S5.272 28.94 20.877 29.065c4.896-1.82 8.504-6.28 9.05-11.658.038-.372.05-.752.058-1.132.001-.1.015-.198.015-.298 0-.433-.026-.861-.064-1.284-4.123 16.202-22.362 9.856-20.77-.074z"/><path style="opacity:.1" d="M20 17a4 4 0 1 1-3.999-4A4 4 0 0 1 20 17z"/><path style="fill:#4b4c4d" d="M20 16a4 4 0 1 1-3.999-4A4 4 0 0 1 20 16z"/><path style="fill:#fff;opacity:.1" d="M16 2a14.052 14.027 0 0 0-2.54.24c1.301.16 2.456.438 3.5.797 5.596.38 10.277 4.045 12.151 9.076.016.245.017.473.024.707.016-.544.016-1.106-.024-1.709C27.131 5.794 22.016 2 16 2zm-3.742.967a23.089 23.089 0 0 0-1.397.017C5.673 5.03 2 10.07 2 15.974a14.079 14.054 0 0 0 .023.407c.238-5.647 3.825-10.42 8.838-12.397.484-.02.95-.026 1.397-.017 9.126.172 10.838 6.098 10.949 10.138.081-2.369-.303-5.797-2.734-8.232-1.697-1.307-4-2.264-7.012-2.633a14.052 14.027 0 0 1 .828-.119 18.21 18.21 0 0 0-2.031-.154zm.783 5.875c-4.273.092-10.257 2.033-10.113 12.226a14.04 14.015 0 0 0 .025.055c.241-9.42 6.044-11.22 10.184-11.281a7.562 7.562 0 0 1 4.097-.537s-1.419-.396-3.363-.457a15.665 15.665 0 0 0-.83-.006zm11.256 4.492c-.234 5.003-3.797 9.766-8.828 9.695 0 0 1.734.214 3.957-.054 3.125-1.823 5.04-5.747 4.87-9.641zM9.166 14.619s-.477 1.803-.416 4.125c.05-1.36.231-2.3.334-2.752-.01-.45.007-.905.082-1.373zm20.77.074c-2.294 9.013-8.953 11.043-14.14 9.366-.117-.012-.327-.03-.327-.03.068.001.133-.009.2-.01-3.514-1.182-6.32-4.073-6.58-7.644-.58 9.483 16.83 15.104 20.847-.682.023.257.028.518.039.778.001-.066.008-.13.01-.196 0-.1.015-.198.015-.298 0-.433-.026-.86-.064-1.284zm-7.026 1.803c-.007.103-.003.204-.014.309l.028-.139c-.003-.057-.01-.113-.014-.17zM7.34 19.74c-.19 3.837 1.726 7.873 6.836 10.123a14.044 14.02 0 0 0 1.742.133c.024 0 .047.004.07.004.466 0 .926-.026 1.38-.07-6.98-1.662-9.827-5.946-10.028-10.19z"/></svg>
